assets/azuremarketplace/original.svg

<svg height="18" viewBox="0 0 18 18" width="18" xmlns="http://www.w3.org/2000/svg" xmlns:xlink="http://www.w3.org/1999/xlink"><linearGradient id="a" gradientUnits="userSpaceOnUse" x1="7.63" x2="7.63" y1="15.34" y2="5.84"><stop offset="0" stop-color="#ccc"/><stop offset=".15" stop-color="#dadada"/><stop offset=".44" stop-color="#eee"/><stop offset=".72" stop-color="#fbfbfb"/><stop offset="1" stop-color="#fff"/></linearGradient><path d="m15 4.77h-1v12.8l1-1.93z" fill="#50e6ff"/><path d="m15 15.63-1 1.93 1-.8 1.23-.95z" fill="#9cebff"/><path d="m8.39 2.86a1.57 1.57 0 0 1 1.61-1.51 1.57 1.57 0 0 1 1.63 1.51v1.91h.78v-1.91a2.35 2.35 0 0 0 -2.41-2.29 2.35 2.35 0 0 0 -2.4 2.29v1.91h.78z" fill="#a3a3a3"/><path d="m6 2.86a1.57 1.57 0 0 1 1.62-1.51 1.58 1.58 0 0 1 1.63 1.51v1.91h.75v-1.91a2.36 2.36 0 0 0 -2.38-2.29 2.35 2.35 0 0 0 -2.4 2.29v1.91h.78z" fill="#767676"/><path d="m13.92 4.77v12.8l-12.47-.99.38-11.81zm1.03 0v10.87l1.23.18-.37-11.05z" fill="#32bedd"/><path d="m12.19 12.31a2.3 2.3 0 0 0 -1.79-2.18 2.84 2.84 0 0 0 -2.66-2.75 2.47 2.47 0 0 0 -2.54 1.62 2.3 2.3 0 0 0 -2.13 2.31 2.74 2.74 0 0 0 2.56 2.69h.22l4.16.28h.11a2 2 0 0 0 2.07-1.97" fill="url(#a)"/></svg>

<svg xmlns="http://www.w3.org/2000/svg" id="ace1255c-94e6-4d53-bb3a-34ece21d92fa" width="18" height="18" viewBox="0 0 18 18"><defs><linearGradient id="a9aaf2bb-2b64-49fc-9aeb-39d687a60471" x1="7.63" x2="7.63" y1="15.34" y2="5.84" gradientUnits="userSpaceOnUse"><stop offset="0" stop-color="#ccc"/><stop offset=".15" stop-color="#dadada"/><stop offset=".44" stop-color="#eee"/><stop offset=".72" stop-color="#fbfbfb"/><stop offset="1" stop-color="#fff"/></linearGradient></defs><title>Icon-general-8</title><path id="f354248b-347f-4f34-a8b1-60412d94c898" fill="#50e6ff" d="M15 4.77h-1v12.8l1-1.93Z"/><path id="bf20c85f-cfbc-4e9f-9f35-5cecd5301485" fill="#9cebff" d="m15 15.63-1 1.93 1-.8 1.23-.95Z"/><path id="be80f902-4822-48d8-b1cc-57ee4a39e795" fill="#a3a3a3" d="M8.39 2.86A1.57 1.57 0 0 1 10 1.35a1.57 1.57 0 0 1 1.63 1.51v1.91h.78V2.86A2.35 2.35 0 0 0 10 .57a2.35 2.35 0 0 0-2.4 2.29v1.91h.78Z"/><path id="bb07ca4b-ec49-44a9-9a8d-bb0f7a8be768" fill="#767676" d="M6 2.86a1.57 1.57 0 0 1 1.62-1.51 1.58 1.58 0 0 1 1.63 1.51v1.91H10V2.86A2.36 2.36 0 0 0 7.62.57a2.35 2.35 0 0 0-2.4 2.29v1.91H6Z"/><path fill="#32bedd" d="M13.92 4.77v12.8l-12.47-.99.38-11.81zM14.95 4.77v10.87l1.23.18-.37-11.05z"/><path fill="url(#a9aaf2bb-2b64-49fc-9aeb-39d687a60471)" d="M12.19 12.31a2.3 2.3 0 0 0-1.79-2.18 2.84 2.84 0 0 0-2.66-2.75A2.47 2.47 0 0 0 5.2 9a2.3 2.3 0 0 0-2.13 2.31A2.74 2.74 0 0 0 5.63 14h.22l4.16.28h.11a2 2 0 0 0 2.07-1.97"/></svg>
